X: 1
T: LORD GORDON'S -- REEL
B: Ryan's Mammoth Collection of Fiddle Tunes
R: reel
M: C|
L: 1/8
Z: Contributed 20010525023534 by John Chambers jc:trillian.mit.edu
K: D
 vdB "^segno"[|]\
|]ADFD ADdB | ADFD A2GF | EFGA BEE2 | defd B2AB \
| defd efdB | AFDF A2Bc | dBcA BFAF | E2FA B2ag |]
  fdad fdad | fdad a2gf | bege bege | defd B2AB \
| defd efdB | AFDF A2Bc | dBcA BFAF | D2FA B2dB "^segno"[|]|]
